X:1
T:Mazurka 2
%%textfont Helvetica-Narrow 10pt
%%begintext align
B:"Schule fuer boehmischen Bock", Band I, R.Lughofer, Eigenverlag, Kremsmuenster 1998
%%endtext 
F:http://simonwascher.info/
Z:abc transcription Simon Wascher
M:3/4
L:1/8
K:G
G>FG2B2 | d3/2B/2G2B2 | A3/2G/2ABA2 | G3/2F/2GAG2 |
G3/2F/2G2B2 | d3/2B/2G2B2 | A3/2G/2ABAF | G2G4 :|
|:\
D3/2F/2A2F2 | GABDG2 | ABcABc | Bcd2d2 |
D3/2F/2A2F2 | GABDGe | d2cBcF | G2G4 :|
K:C
|:\
c3Ged | c3Ged | cd/2c/2B2c2 | d2d4 |
B3GBd | c3Gce | decdAd | GFGABG | 
c3Ged | c3Ged | cd/2c/2B2c2 | d2d4 |
d3GBd | c3ecG | AcBGBd | c2c4 :|
%%wordsfont Times-Italic 11pt
W:aus Simon Waschers TradArchiv
